X:1
T:Neujahrslied
T:Felix Mendelssohn
T:6 Lieder, Op. 88: No. 1
%%score [ 1 2 3 4 ]
L:1/8
Q:1/4=104
M:4/4
K:Eb
V:1 treble nm="Soprano"
V:2 treble nm="Alto"
V:3 treble-8 nm="Tenor"
V:4 bass nm="Bass"
V:1
!p!"^Assai sostenuto" B2 B2 e3 B | G2 A2 B4 | B2!<(! =B2 c2 f2!<)! | e4 d4 | e3 c =B2 G2 | %5
w: 1.Mit der Freu- de|zieht der Schmerz|trau- lich durch die|Zei- ten,|schwe- re Stür- me,|
w: 2.Und wo man- che|Thrä- ne fällt,|blüht auch man- che|Ro- se,|schon ge- mischt, noch|
w: 3.War's nicht so im|al- ten jahr?|Wird's im neu- en|en- den?|Son- nen wal- len|
 e3 c c2 =B2 |!p! c3 A G2 C2 | c3 A A2 G2 |"^cresc." F2 G2 A2 =A2 | (B3 c) B4 | %10
w: mil- de We- ste,|ban- ge Sor- gen,|fro- he Fe- ste|wan- deln sich zur|Sei- * ten,|
w: eh' wir's bit- ten,|ist für Thro- nen|und für Hüt- ten|Schmerz und Lust im|Loo- * se,|
w: auf und nie- der,|Wol- ken geh'n und|kom- men wie- der,|und kein Wunsch wird's|wen- * den,|
"^dim." =B2 c2 d2 e2 |!p! (E4 G3 F) | E6 z2 :|!pp! E2 E2 E3 E | E2 E2 E4 |!<(! F6 F2!<)! | %16
w: wan- deln sich zur|Sei- * *|ten.|4.Ge- be denn, der|ü- ber uns|wägt mit|
w: Schmerz und Lust im|Loo- * *|se.||||
w: und kein Wunsch wird's|wen- * *|den.||||
!>(! F2 F2 F4-!>)! |!p! F2 F2 G2 G2 | G3 G c2 c2 | c2 =B2 c2 c2 |!f! c3 c f2 f2 | f4!>(! =e4!>)! | %22
w: rech- ter Wa-|* ge, je- dem|Sinn für sei- ne|Freu- den, je- dem|Muth für sei- ne|Lei- den,|
w: ||||||
w: ||||||
!p! F2 G2 A2 =A2 | (B3 c) B4 | =B2 c2 d2 e2 |!pp! (E4 G3 F) | E6 !fermata!z2 |] %27
w: in die neu- en|Ta- * ge,|in die neu- en|Ta- * *|ge.|
w: |||||
w: |||||
V:2
!p! E2 F2 G3 G | E2 E2 G4 | G2!<(! G2 E2 A2!<)! | A4 A4 | G3 G F2 F2 | E2 G2 F2 F2 | %6
w: 1.Mit der Freu- de|zieht der Schmerz|trau- lich durch die|Zei- ten,|schwe- re Stür- me,|mil- de We- ste,|
w: 2.Und wo man- che|Thrä- ne fällt,|blüht auch man- che|Ro- se,|schon ge- mischt, noch|eh' wir's bit- ten,|
w: 3.War's nicht so im|al- ten jahr?|Wird's im neu- en|en- den?|Son- nen wal- len|auf und nie- der,|
!p! =E3 F E2 C2 | =E3 F F2 E2 |"^cresc." F2 =E2 F2 F2 | _A4 G4 |"^dim." F2 F2 ^F2 F2 |!p! (G4 D4) | %12
w: ban- ge Sor- gen,|fro- he Fe- ste|wan- deln sich zur|Sei- ten,|wan- deln sich zur|Sei- *|
w: ist für Thro- nen|und für Hüt- ten|Schmerz und Lust im|Loo- se,|Schmerz und Lust im|Loo- *|
w: Wol- ken geh'n und|kom- men wie- der,|und kein Wunsch wird's|wen- den,|und kein Wunsch wird's|wen- *|
 E6 z2 :|!pp! _D2 D2 C3 C | _D2 B,2 E4 |!<(! E6 E2!<)! |!>(! E2 E2 (E4!>)! |!p! D2) D2 F2 F2 | %18
w: ten.|4.Ge- be denn, der|ü- ber uns|wägt mit|rech- ter Wa-|* ge, je- dem|
w: se.||||||
w: den.||||||
 E3 E G2 G2 | G2 G2 G2 _B2 |!f! A3 A F2 A2 | A4!>(! G4!>)! |!p! F2 =E2 F2 F2 | _A4 G4 | %24
w: Sinn für sei- ne|Freu- den, je- dem|Muth für sei- ne|Lei- den,|in die neu- en|Ta- ge,|
w: ||||||
w: ||||||
 F2 F2 ^F2 F2 |!pp! (G4 D4) | E6 !fermata!z2 |] %27
w: in die neu- en|Ta- *|ge.|
w: |||
w: |||
V:3
!p! G2 A2 B3 B | B2 c2 _d4 | _d2!<(! d2 c2 c2!<)! | f4 f4 | e3 e d2 =B2 | c2 e2 d2 d2 | %6
w: 1.Mit der Freu- de|zieht der Schmerz|trau- lich durch die|Zei- ten,|schwe- re Stür- me,|mil- de We- ste,|
w: 2.Und wo man- che|Thrä- ne fällt,|blüht auch man- che|Ro- se,|schon ge- mischt, noch|eh' wir's bit- ten,|
w: 3.War's nicht so im|al- ten jahr?|Wird's im neu- en|en- den?|Son- nen wal- len|auf und nie- der,|
!p! c3 c c2 c2 | G3 c c2 c2 |"^cresc." c2 B2 A2 c2 | f4 (g2 e2) |"^dim." e2 e2 d2 c2 | %11
w: ban- ge Sor- gen,|fro- he Fe- ste|wan- deln sich zur|Sei- ten, _|wan- deln sich zur|
w: ist für Thro- nen|und für Hüt- ten|Schmerz und Lust im|Loo- se, _|Schmerz und Lust im|
w: Wol- ken geh'n und|kom- men wie- der,|und kein Wunsch wird's|wen- den, _|und kein Wunsch wird's|
!p! (B4- B3 A) | G6 z2 :|!pp! B2 B2 A3 A | A2 G2 A4 |!<(! =A6 B2!<)! |!>(! c2 c2 B4-!>)! | %17
w: Sei- * *|ten.|4.Ge- be denn, der|ü- ber uns|wägt mit|rech- ter Wa-|
w: Loo- * *|se.|||||
w: wen- * *|den.|||||
!p! B2 B2 =B2 B2 | c3 c c2 e2 | e2 d2 c2 c2 |!f! c3 c =B2 B2 | =B4!>(! c4!>)! |!p! c2 _B2 A2 c2 | %23
w: * ge, je- dem|Sinn für sei- ne|Freu- den, je- dem|Muth für sei- ne|Lei- den,|in die neu- en|
w: ||||||
w: ||||||
 f4 (g2 e2) | e2 e2 d2 c2 |!pp! (B4- B3 A) | G6 !fermata!z2 |] %27
w: Ta- ge, _|in die neu- en|Ta- * *|ge.|
w: ||||
w: ||||
V:4
!p! E,2 E,2 E,3 E, | E,2 E,2 E,4 | E,2!<(! E,2 A,2 A,2!<)! | B,4 B,4 | z4 G,3 G, | G,4 G,4 | %6
w: 1.Mit der Freu- de|zieht der Schmerz|trau- lich durch die|Zei- ten,|schwe- re|Stür- me,|
w: 2.Und wo man- che|Thrä- ne fällt,|blüht auch man- che|Ro- se,|schon ge-|mischt, noch|
w: 3.War's nicht so im|al- ten jahr?|Wird's im neu- en|en- den?|Son- nen|wal- len|
!p! z4 C,3 C, | C,2 C,2 C2 B,2 |"^cresc." A,2 G,2 F,2 E,2 | D,4 E,4 |"^dim." A,,2 A,,2 =A,,2 A,,2 | %11
w: mil- de|We- ste, ban- ge|Sor- gen, fro- he|Fe- ste|wan- deln sich zur|
w: eh' wir's|bit- ten, ist für|Thro- nen und für|Hüt- ten|Schmerz und Lust im|
w: auf und|nie- der, Wol- ken|geh'n und kom- men|wie- der,|und kein Wunsch wird's|
!p! B,,8 | E,6 z2 :|!pp! G,,2 G,,2 A,,3 A,, | B,,2 _D,2 C,4 |!<(! _C,6 B,,2!<)! | %16
w: Sei-|ten.|4.Ge- be denn, der|ü- ber uns|wägt mit|
w: Loo-|se.||||
w: wen-|den.||||
!>(! =A,,2 A,,2 B,,4-!>)! |!p! B,,2 _A,,2 G,,2 G,,2 | C,3 C, E,2 C,2 | G,2 F,2 =E,2 E,2 | %20
w: rech- ter Wa-|* ge, je- dem|Sinn für sei- ne|Freu- den, je- dem|
w: ||||
w: ||||
!f! F,3 F, A,2 F,2 | C,4!>(! (C2 B,2)!>)! |!p! A,2 G,2 F,2 E,2 | D,4 E,4 | A,,2 A,,2 =A,,2 A,,2 | %25
w: Muth für sei- ne|Lei- den, _|in die neu- en|Ta- ge,|in die neu- en|
w: |||||
w: |||||
!pp! B,,8 | [E,,E,]6 !fermata!z2 |] %27
w: Ta-|ge.|
w: ||
w: ||

